!!!COM: John Williams
!!!OTL: Duel of the Fate Theme
!!!GAW: Star Wars: Episode I
!!!ODT: 1999
!!!OCL: Frank Lehman
!!!ENC: Claire Arthur
!!!ENC2: John McNamara
**kern	**harte	**harm	**pedal
*clefG2	*	*	*
*k[f#]	*k[f#]	*k[f#]	*
*e:	*e:	*e:	*
*M4/4	*M4/4	*M4/4	*
=1	=1	=1	=1
*MM160	*	*	*
4r	E:min	.	Pedal : E
8eL	.	i	.
8f#J	.	.	.
4g	.	.	.
4a	.	.	.
=2	=2	=2	=2
4B	E:min	.	.
4a	.	.	.
8gL	.	.	.
8f#J	.	.	.
4e	.	.	.
=3	=3	=3	=3
4r	E:min	.	.
8eL	.	.	.
8f#J	.	.	.
4g	.	.	.
4a	.	.	.
=4	=4	=4	=4
4B	E:min	.	.
4a	.	.	.
8gL	.	.	.
8f#J	.	.	.
4e	.	.	.
=5	=5	=5	=5
4r	B:7/4	.	.
8d#L	.	V7	.
8eJ	.	.	.
4f#	.	.	.
4g	.	.	.
=6	=6	=6	=6
4A	B:7/4	.	.
4b	.	.	.
8aL	.	.	.
8gJ	.	.	.
4f#	.	.	.
=7	=7	=7	=7
4r	B:7/4	.	.
8d#L	.	.	.
8eJ	.	.	.
4f#	.	.	.
4g	.	.	.
=8	=8	=8	=8
4A	B:7/4	.	.
4g	.	.	.
8f#L	.	.	.
8eJ	.	.	.
[4d#	.	.	.
=9	=9	=9	=9
1d#]	.	.	.
=	=	=	=
*-	*-	*-	*-
